svgs/duotone/bed-bunk.svg

<svg xmlns="http://www.w3.org/2000/svg" viewBox="0 0 576 512"><!--! Font Awesome Pro 6.0.0-alpha3 by @fontawesome - https://fontawesome.com License - https://fontawesome.com/license (Commercial License) --><defs><style>.fa-secondary{opacity:.4}</style></defs><path class="fa-primary" d="M64 128V16C64 7.125 56.88 0 48 0h-32C7.125 0 0 7.125 0 16v480C0 504.9 7.125 512 16 512h32C56.88 512 64 504.9 64 496V448h448v48c0 8.875 7.125 16 16 16h32c8.875 0 16-7.125 16-16V128H64zM512 384H64V192h448V384z"/><path class="fa-secondary" d="M144 0C117.5 0 96 21.5 96 48S117.5 96 144 96S192 74.5 192 48S170.5 0 144 0zM464 0h-224C231.1 0 224 7.125 224 16V128h352V112C576 50.13 525.9 0 464 0zM240 256C231.1 256 224 263.1 224 272V384h288V267.3C497 259.9 480.6 256.1 464 256H240zM144 256C117.5 256 96 277.5 96 304S117.5 352 144 352S192 330.5 192 304S170.5 256 144 256z"/></svg>

<svg xmlns="http://www.w3.org/2000/svg" viewBox="0 0 576 512"><defs><style>.fa-secondary{opacity:.4}</style></defs><path d="M144,256a48,48,0,1,0,48,48A48.06,48.06,0,0,0,144,256ZM144,0a48,48,0,1,0,48,48A48.06,48.06,0,0,0,144,0ZM464,0H240a16,16,0,0,0-16,16V128H576V112A112,112,0,0,0,464,0ZM240,256a16,16,0,0,0-16,16V384H512V267.19A110.87,110.87,0,0,0,464,256Z" class="fa-secondary"/><path d="M64,128V16A16,16,0,0,0,48,0H16A16,16,0,0,0,0,16V496a16,16,0,0,0,16,16H48a16,16,0,0,0,16-16V448H512v48a16,16,0,0,0,16,16h32a16,16,0,0,0,16-16V128ZM512,384H64V192H512Z" class="fa-primary"/></svg>
